brandFactory_export/3.Masa/Ajustes cloud_3Masa.svg

<?xml version="1.0" encoding="UTF-8"?>
<svg width="24px" height="24px" viewBox="0 0 24 24" version="1.1" xmlns="http://www.w3.org/2000/svg" xmlns:xlink="http://www.w3.org/1999/xlink">
    <title>3.Masa/Ajustes cloud_3Masa</title>
    <g id="Symbols" stroke="none" stroke-width="1" fill="none" fill-rule="evenodd">
        <g id="3.Masa/Ajustes-cloud_3Masa" fill="#5CB615" fill-rule="nonzero">
            <path d="M11.8117647,10.7563025 C13.1932773,10.7563025 14.0201681,11.5764706 14.0201681,12.9478992 C14.0201681,14.3226891 13.1966387,15.1394958 11.8117647,15.1394958 C10.4268908,15.1394958 9.60336134,14.3193277 9.60336134,12.9478992 C9.60336134,11.5764706 10.4302521,10.7563025 11.8117647,10.7563025 Z M16.8739496,13.307563 L16.8739496,12.5915966 C16.8705882,12.1310924 16.497479,11.7579832 16.0369748,11.7579832 L15.4554622,11.7579832 C15.4117647,11.5697479 15.3546218,11.3882353 15.2840336,11.210084 L15.7579832,10.7394958 C16.087395,10.4168067 16.0907563,9.88907563 15.7680672,9.55966387 L15.7613445,9.55294118 L15.2369748,9.03193277 C14.9042017,8.70588235 14.3731092,8.70588235 14.0403361,9.03193277 L13.5663866,9.50252101 C13.3848739,9.43193277 13.2,9.37478992 13.0117647,9.33109244 L13.0117647,8.75294118 C13.0084034,8.29243697 12.6352941,7.91932773 12.1747899,7.92266654 L11.4588235,7.92266654 C10.9983193,7.92266654 10.6218487,8.29243697 10.6218487,8.75294118 L10.6218487,9.33109244 C10.4336134,9.37478992 10.2487395,9.43193277 10.0672269,9.50252101 L9.59327731,9.03193277 C9.43529412,8.87394958 9.22016807,8.78655462 8.99831933,8.78655462 L8.99495798,8.78655462 C8.7697479,8.78655462 8.55462185,8.87394958 8.39663866,9.03193277 L7.86554622,9.54957983 C7.53613445,9.87226891 7.53277311,10.4 7.85882353,10.7294118 L7.86554622,10.7361345 L8.33613445,11.2033613 C8.26554622,11.3848739 8.20840336,11.5697479 8.16806723,11.7579832 L7.58655462,11.7579832 C7.12605042,11.7579832 6.74957983,12.1277311 6.74621849,12.5915966 L6.74621849,13.307563 C6.74957983,13.7680672 7.12605042,14.1411765 7.58655462,14.1378151 L8.16806723,14.1378151 C8.20504202,14.302521 8.25882353,14.5042017 8.33613445,14.692437 L7.86554622,15.1596639 C7.53613445,15.4823529 7.53277311,16.010084 7.85882353,16.3394958 L7.86554622,16.3462185 L8.38991597,16.8672269 C8.5512605,17.0252101 8.76302521,17.112605 8.98823529,17.112605 L8.99159664,17.112605 C9.21680672,17.112605 9.42857143,17.0252101 9.58655462,16.8672269 L10.0605042,16.3966387 C10.2319328,16.4638655 10.4201681,16.5243697 10.6151261,16.5680672 L10.6151261,17.1462185 C10.6184874,17.6067227 10.9915966,17.9798319 11.4521008,17.9764931 L12.1680672,17.9764931 C12.6285714,17.9764931 13.0016807,17.6067227 13.005042,17.1462185 L13.005042,16.5680672 C13.2,16.5243697 13.3815126,16.4672269 13.5596639,16.3932773 L14.0336134,16.8672269 C14.3630252,17.1932773 14.9008403,17.1932773 15.2302521,16.8672269 L15.7546218,16.3462185 C16.0840336,16.0201681 16.0840336,15.492437 15.7579832,15.1630252 L15.7546218,15.1596639 L15.2840336,14.6890756 C15.3512605,14.5176471 15.4117647,14.3361345 15.4554622,14.1378151 L16.0369748,14.1378151 C16.497479,14.1378151 16.8739496,13.7680672 16.8739496,13.307563 L16.8739496,13.307563 Z M17.9865546,8.5512605 C19.687395,8.6789916 23.6235294,9.52605042 23.6235294,14.5848739 C23.6235294,20.3697479 18.4571429,20.6655462 17.4184874,20.6655462 L5.07563025,20.7327731 C2.62184874,20.7327731 -1.77635684e-15,19.4151261 -1.77635684e-15,15.7142857 C-1.77635684e-15,12.6890756 1.74117647,11.512605 3.00168067,11.0521008 C3.13613445,4.34285714 9.41512605,4 10.6857143,4 C11.6739496,4 16.5747899,4.22184874 17.9865546,8.5512605 L17.9865546,8.5512605 Z" id="Ajustes-cloud_3Masa"></path>
        </g>
    </g>
</svg>

<svg width="24" height="24" viewBox="0 0 24 24" xmlns="http://www.w3.org/2000/svg"><path d="M11.812 10.756c1.381 0 2.208.82 2.208 2.192 0 1.375-.823 2.191-2.208 2.191-1.385 0-2.209-.82-2.209-2.191 0-1.372.827-2.192 2.209-2.192zm5.062 2.552v-.716a.839.839 0 00-.837-.834h-.582c-.043-.188-.1-.37-.171-.548l.474-.47a.834.834 0 00.01-1.18l-.007-.007-.524-.521a.854.854 0 00-1.197 0l-.474.47a4.064 4.064 0 00-.554-.17v-.58a.834.834 0 00-.837-.83h-.716c-.46 0-.837.37-.837.83v.58c-.188.043-.373.1-.555.17l-.474-.47a.842.842 0 00-.595-.245h-.003a.844.844 0 00-.598.245l-.531.518a.83.83 0 00-.007 1.18l.007.006.47.467c-.07.182-.128.367-.168.555h-.581a.84.84 0 00-.84.834v.716c.003.46.38.833.84.83h.581c.037.165.09.366.168.554l-.47.468a.83.83 0 00-.007 1.18l.007.006.524.521a.85.85 0 00.598.246h.004a.836.836 0 00.595-.246l.474-.47c.17.067.36.127.554.171v.578c.003.46.377.834.837.83h.716c.46 0 .834-.37.837-.83v-.578c.195-.044.377-.1.555-.175l.474.474a.854.854 0 001.196 0l.525-.52a.835.835 0 00.003-1.184l-.003-.003-.471-.47c.067-.172.128-.354.171-.552h.582c.46 0 .837-.37.837-.83zm1.113-4.757c1.7.128 5.637.975 5.637 6.034 0 5.785-5.167 6.08-6.206 6.08l-12.342.068C2.622 20.733 0 19.415 0 15.714c0-3.025 1.741-4.201 3.002-4.662C3.136 4.342 9.415 4 10.686 4c.988 0 5.889.222 7.3 4.551z" fill="#5CB615" fill-rule="nonzero"/></svg>
